Yaru++/apps/scalable/chrome-opngmganjdbkepnmaakokoicipolgaeh-Default.svg

<svg enable-background="new 0 0 1024 721" height="256" viewBox="0 0 256 256" width="256" xmlns="http://www.w3.org/2000/svg" xmlns:xlink="http://www.w3.org/1999/xlink">
  <filter id="filter1345-3" color-interpolation-filters="sRGB" height="1.048" width="1.048" x="-.024" y="-.024">
    <feGaussianBlur stdDeviation="1.28"/>
  </filter>
  <path d="m104.86312 156.26122 60.5287-31.36088-60.5287-31.580176z" fill="#fff" stroke-width="1.866667"/>
  <path d="m104.86312 93.320164 53.07226 35.439976 7.45644-3.8598z" fill="#420000" opacity=".12" stroke-width="1.866667"/>
  <g fill="#f22c42" stroke-width="8.511666" transform="matrix(.21930683 0 0 .21930683 15.605248 48.142944)">
    <path d="m1013 156.3s-10-70.4-40.6-101.4c-38.8-40.7-82.4-40.9-102.3-43.3-143-10.3-357.4-10.3-357.4-10.3h-.4s-214.4 0-357.4 10.3c-19.9 2.4-63.5 2.6-102.3 43.3-30.6 31-40.6 101.4-40.6 101.4s-10.2 82.6-10.2 165.3v77.5c0 82.7 10.2 165.3 10.2 165.3s10 70.4 40.6 101.4c38.9 40.7 89.9 39.4 112.6 43.7 81.7 7.8 347.3 10.3 347.3 10.3s214.6-.3 357.6-10.7c20-2.4 63.5-2.6 102.3-43.3 30.6-31 40.6-101.4 40.6-101.4s10.2-82.7 10.2-165.3v-77.5c0-82.7-10.2-165.3-10.2-165.3zm-606 336.7v-287l276 144z" stroke-width="8.511666"/>
    <path d="m104.86328 91.320312v2l58.60547 30.576168 1.92383-.99609zm-88.86328 42.347658v2c0 18.13667 2.236328 36.25195 2.236328 36.25195s2.193508 15.43977 8.904297 22.23828c8.531036 8.92579 19.715094 8.63902 24.693359 9.58203 17.917368 1.7106 76.166016 2.25977 76.166016 2.25977s47.06295-.06491 78.42383-2.3457c4.38613-.52634 13.92644-.57031 22.43555-9.4961 6.71078-6.79851 8.90429-22.23828 8.90429-22.23828s2.23633-18.13721 2.23633-36.25195v-2c0 18.11474-2.23633 36.25195-2.23633 36.25195s-2.19351 15.43977-8.90429 22.23828c-8.50911 8.92579-18.04942 8.96976-22.43555 9.4961-31.36088 2.28079-78.42383 2.3457-78.42383 2.3457s-58.248648-.54917-76.166016-2.25977c-4.978265-.94301-16.162323-.65624-24.693359-9.58203-6.710789-6.79851-8.904297-22.23828-8.904297-22.23828s-2.236328-18.11528-2.236328-36.25195z" opacity=".2" stroke-width="1.866667" transform="matrix(4.5598215 0 0 4.5598215 -71.157145 -219.52323)"/>
  </g>
  <path d="m127.95703 48.427734s-47.019981.000906-78.380858 2.259766c-4.364206.526336-13.926442.570306-22.435547 9.496094-6.710789 6.798511-8.904297 22.236328-8.904297 22.236328s-2.236328 18.115278-2.236328 36.251958v2c0-18.13668 2.236328-36.251958 2.236328-36.251958s2.193508-15.437817 8.904297-22.236328c8.509105-8.925788 18.071341-8.969758 22.435547-9.496094 31.360877-2.25886 78.380858-2.259766 78.380858-2.259766h.08594s47.01998.000906 78.38086 2.259766c4.3642.526336 13.92644.570306 22.43555 9.496094 6.71078 6.798511 8.90429 22.236328 8.90429 22.236328s2.23633 18.115278 2.23633 36.251958v-2c0-18.13668-2.23633-36.251958-2.23633-36.251958s-2.19351-15.437817-8.90429-22.236328c-8.50911-8.925788-18.07135-8.969758-22.43555-9.496094-31.36088-2.25886-78.38086-2.259766-78.38086-2.259766zm35.51172 77.468746-58.60547 30.36524v2l60.5293-31.36133z" fill="#fff8f8" opacity=".3" stroke-width="1.866667" transform="matrix(.99999999853 0 0 .99999999853 .0000000982 .00000031734)"/>
  <g fill="#f22c42" stroke-width="8.511666" transform="matrix(.21930683 0 0 .21930683 15.605248 48.142944)">
    <path d="m1013 156.3s-10-70.4-40.6-101.4c-38.8-40.7-82.4-40.9-102.3-43.3-143-10.3-357.4-10.3-357.4-10.3h-.4s-214.4 0-357.4 10.3c-19.9 2.4-63.5 2.6-102.3 43.3-30.6 31-40.6 101.4-40.6 101.4s-10.2 82.6-10.2 165.3v77.5c0 82.7 10.2 165.3 10.2 165.3s10 70.4 40.6 101.4c38.9 40.7 89.9 39.4 112.6 43.7 81.7 7.8 347.3 10.3 347.3 10.3s214.6-.3 357.6-10.7c20-2.4 63.5-2.6 102.3-43.3 30.6-31 40.6-101.4 40.6-101.4s10.2-82.7 10.2-165.3v-77.5c0-82.7-10.2-165.3-10.2-165.3zm-606 336.7v-287l276 144z" fill="#f22c42" stroke-width="8.511666"/>
    <path d="m104.86328 91.320312v2l58.60547 30.576168 1.92383-.99609zm-88.86328 42.347658v2c0 18.13667 2.236328 36.25195 2.236328 36.25195s2.193508 15.43977 8.904297 22.23828c8.531036 8.92579 19.715094 8.63902 24.693359 9.58203 17.917368 1.7106 76.166016 2.25977 76.166016 2.25977s47.06295-.06491 78.42383-2.3457c4.38613-.52634 13.92644-.57031 22.43555-9.4961 6.71077-6.79851 8.90429-22.23828 8.90429-22.23828s2.23633-18.13721 2.23633-36.25195v-2c0 2.26434-.03455 4.52823-.0957 6.75781-.30578 11.14856-1.26671 21.41828-1.79102 26.37695-.20965 1.98341-.34961 3.11719-.34961 3.11719s-.03433.24032-.10742.67578c-.51152 3.04811-2.92493 15.61381-8.79687 21.5625-1.06364 1.11573-2.14278 2.09277-3.22657 2.94922-1.62567 1.28469-3.26023 2.29735-4.86328 3.10156-1.06869.53614-2.12391.97934-3.15234 1.34766-1.54266.55248-3.02604.93708-4.41016 1.21484-2.76815.55551-5.1384.68544-6.7832.88282-7.84022.57019-16.6621 1.0013-25.48438 1.32812-13.23345.49036-26.4679.74511-36.39453.87696-9.92658.13168-16.54492.14062-16.54492.14062s-22.7536-.21468-44.193359-.79297c-.133844-.00361-.25689-.00808-.390625-.01172-12.718639-.34604-24.933278-.82031-31.582032-1.45508-.622283-.11787-1.341697-.21651-2.140625-.3164-1.477389-.18472-3.245362-.38519-5.158203-.70703-.155973-.02623-.293089-.0403-.451172-.06836-.000614-.00011-.001339.00011-.001953 0-.524177-.09307-1.058972-.19785-1.603515-.31446-1.633686-.34997-3.348771-.81715-5.087891-1.4707-1.739068-.6534-3.502754-1.49323-5.230469-2.58789-1.727748-1.09476-3.419962-2.4436-5.019531-4.11719-.419083-.42456-.820666-.88305-1.205078-1.36914-.000323-.00041.000322-.00154 0-.00195-.769064-.97265-1.472298-2.0566-2.109375-3.20508-.000279-.0005.000278-.00145 0-.00195-.637013-1.14852-1.210507-2.36144-1.72461-3.5918-.000234-.00056.000235-.00139 0-.00195-.256904-.6149-.498657-1.23383-.726562-1.85156-.000215-.00059.000215-.00137 0-.00196-.45595-1.23599-.856466-2.4657-1.203125-3.64258-.00019-.00064.00019-.0013 0-.00195-.693321-2.354-1.177813-4.4953-1.488281-6.04883-.000159-.00079.000159-.00115 0-.00195-.310456-1.55365-.447266-2.51758-.447266-2.51758s-2.236328-18.11528-2.236328-36.25195z" fill="#000" opacity=".2" stroke-width="1.866667" transform="matrix(4.5598215 0 0 4.5598215 -71.157145 -219.52323)"/>
    <circle cx="67.071999" cy="67.071999" fill="#000" filter="url(#filter1345-3)" opacity=".2" r="64" transform="matrix(4.5598215 0 0 4.5598215 485.14108 336.1184)"/>
    <circle cx="790.97742" cy="632.83508" fill="#a347ba" r="291.82858"/>
    <g enable-background="new" fill="#fff" transform="matrix(23.711475 0 0 23.711475 613.12934 443.45456)">
      <path d="m6.156.487-.004.002c-.054 0-.125.005-.213.014a1.78 1.78 0 0 0 -.295.056.632.632 0 0 0 -.233.108.373.373 0 0 0 -.123.158.447.447 0 0 0 -.036.2c.003.074.022.151.038.237.369 2.056.71 4.119 1.053 6.18l.838-3.128zm1.344 5.015-.913 3.406.038.23 1.35 2.165.654 2.443c.088.329.216.616.384.861s.365.44.591.584c.227.144.479.236.757.275.272.041.557.021.855-.058.297-.08.553-.206.769-.377a1.9 1.9 0 0 0 .51-.615c.123-.238.2-.505.228-.803.023-.296-.01-.609-.098-.938a2.712 2.712 0 0 0 -.383-.853 2.164 2.164 0 0 0 -.599-.582 1.888 1.888 0 0 0 -.754-.267 1.945 1.945 0 0 0 -.847.056c-.214.064-.42.163-.666.14a.52.52 0 0 1 -.236-.08.588.588 0 0 1 -.167-.187 1.656 1.656 0 0 1 -.107-.301zm0 2.485a.525.525 0 0 1 .525.524.525.525 0 0 1 -.525.525.525.525 0 0 1 -.525-.525.525.525 0 0 1 .525-.524zm2.998 3.84a.888.888 0 0 1 .615.204c.239.192.414.495.525.909.112.419.113.774.004 1.065a.91.91 0 0 1 -.65.567c-.319.085-.598.03-.839-.168-.246-.196-.425-.503-.537-.923-.11-.414-.108-.764.008-1.051.11-.291.324-.48.642-.565.08-.021.157-.034.232-.038z"/>
      <path d="m8.844.487v.002h-.001l-.323 1.199h.001l-2.387 8.912a1.66 1.66 0 0 1 -.107.301.588.588 0 0 1 -.167.187.514.514 0 0 1 -.236.08c-.245.023-.452-.077-.667-.14a1.945 1.945 0 0 0 -.846-.056 1.887 1.887 0 0 0 -.754.267 2.164 2.164 0 0 0 -.6.582c-.166.24-.294.524-.382.853a2.784 2.784 0 0 0 -.098.938c.029.298.105.565.229.803a1.9 1.9 0 0 0 .51.615c.215.171.471.297.768.376.298.08.583.1.855.059.278-.04.53-.131.757-.276.226-.144.423-.338.59-.583.169-.245.297-.532.385-.861l.655-2.443 1.349-2.166c.479-2.618.825-5.262 1.33-7.875.016-.085.034-.163.037-.237a.515.515 0 0 0 -.035-.2.375.375 0 0 0 -.123-.158.63.63 0 0 0 -.234-.106 1.802 1.802 0 0 0 -.296-.056 2.842 2.842 0 0 0 -.204-.015zm-1.344 7.5a.525.525 0 0 1 .525.524.525.525 0 0 1 -.525.525.525.525 0 0 1 -.525-.525.525.525 0 0 1 .525-.524zm-2.998 3.84c.075.004.152.017.232.038.318.085.532.274.642.565.116.287.119.637.008 1.051-.112.42-.291.727-.537.923-.24.197-.52.253-.839.168a.91.91 0 0 1 -.65-.567c-.11-.29-.108-.646.004-1.065.111-.414.286-.717.525-.91a.888.888 0 0 1 .615-.203z"/>
    </g>
  </g>
</svg>

<?xml version="1.0" encoding="UTF-8" standalone="no"?>
<!-- Generator: Adobe Illustrator 21.0.0, SVG Export Plug-In . SVG Version: 6.00 Build 0)  -->

<svg
   xmlns:dc="http://purl.org/dc/elements/1.1/"
   xmlns:cc="http://creativecommons.org/ns#"
   xmlns:rdf="http://www.w3.org/1999/02/22-rdf-syntax-ns#"
   xmlns:svg="http://www.w3.org/2000/svg"
   xmlns="http://www.w3.org/2000/svg"
   xmlns:sodipodi="http://sodipodi.sourceforge.net/DTD/sodipodi-0.dtd"
   xmlns:inkscape="http://www.inkscape.org/namespaces/inkscape"
   version="1.1"
   id="YouTube_Icon"
   x="0px"
   y="0px"
   viewBox="0 0 256 256"
   enable-background="new 0 0 1024 721"
   xml:space="preserve"
   sodipodi:docname="2.svg"
   width="256"
   height="256"
   inkscape:version="0.92.4 (5da689c313, 2019-01-14)"><metadata
   id="metadata19"><rdf:RDF><cc:Work
       rdf:about=""><dc:format>image/svg+xml</dc:format><dc:type
         rdf:resource="http://purl.org/dc/dcmitype/StillImage" /><dc:title></dc:title></cc:Work></rdf:RDF></metadata><defs
   id="defs17"><filter
     inkscape:collect="always"
     style="color-interpolation-filters:sRGB"
     id="filter1345-3"
     x="-0.024"
     width="1.048"
     y="-0.024"
     height="1.048"><feGaussianBlur
       inkscape:collect="always"
       stdDeviation="1.28"
       id="feGaussianBlur1347-6" /></filter></defs><sodipodi:namedview
   pagecolor="#ffffff"
   bordercolor="#666666"
   borderopacity="1"
   objecttolerance="10"
   gridtolerance="10"
   guidetolerance="10"
   inkscape:pageopacity="0"
   inkscape:pageshadow="2"
   inkscape:window-width="1920"
   inkscape:window-height="1016"
   id="namedview15"
   showgrid="false"
   inkscape:zoom="2.9492188"
   inkscape:cx="41.308901"
   inkscape:cy="128"
   inkscape:window-x="0"
   inkscape:window-y="27"
   inkscape:window-maximized="1"
   inkscape:current-layer="g928" />
<path
   id="Triangle"
   d="m 104.86312,156.26122 60.5287,-31.36088 -60.5287,-31.580176 z"
   inkscape:connector-curvature="0"
   style="fill:#ffffff;stroke-width:1.86666667" />
<path
   id="The_Sharpness"
   enable-background="new    "
   d="m 104.86312,93.320164 53.07226,35.439976 7.45644,-3.8598 z"
   inkscape:connector-curvature="0"
   style="opacity:0.12000002;fill:#420000;stroke-width:1.86666667" />
<g
   id="Lozenge"
   transform="matrix(0.21930683,0,0,0.21930683,15.605248,48.142944)"
   style="stroke-width:8.5116663;fill:#f22c42;fill-opacity:1">
	<g
   id="g11"
   style="stroke-width:8.5116663;fill:#f22c42;fill-opacity:1">
		
			<linearGradient
   id="SVGID_1_"
   gradientUnits="userSpaceOnUse"
   x1="512.5"
   y1="719.70001"
   x2="512.5"
   y2="1.2"
   gradientTransform="matrix(1,0,0,-1,0,721)">
			<stop
   offset="0"
   style="stop-color:#E52D27"
   id="stop4" />
			<stop
   offset="1"
   style="stop-color:#BF171D"
   id="stop6" />
		</linearGradient>
		<path
   d="m 1013,156.3 c 0,0 -10,-70.4 -40.6,-101.4 C 933.6,14.2 890,14 870.1,11.6 727.1,1.3 512.7,1.3 512.7,1.3 h -0.4 c 0,0 -214.4,0 -357.4,10.3 C 135,14 91.4,14.2 52.6,54.9 22,85.9 12,156.3 12,156.3 c 0,0 -10.2,82.6 -10.2,165.3 v 77.5 c 0,82.7 10.2,165.3 10.2,165.3 0,0 10,70.4 40.6,101.4 38.9,40.7 89.9,39.4 112.6,43.7 81.7,7.8 347.3,10.3 347.3,10.3 0,0 214.6,-0.3 357.6,-10.7 20,-2.4 63.5,-2.6 102.3,-43.3 30.6,-31 40.6,-101.4 40.6,-101.4 0,0 10.2,-82.7 10.2,-165.3 v -77.5 c 0,-82.7 -10.2,-165.3 -10.2,-165.3 z M 407,493 V 206 l 276,144 z"
   id="path9"
   inkscape:connector-curvature="0"
   style="fill:#f22c42;stroke-width:8.5116663;fill-opacity:1" />
	<path
   style="fill:#f22c42;stroke-width:1.86666656;fill-opacity:1;opacity:0.2"
   d="M 104.86328 91.320312 L 104.86328 93.320312 L 163.46875 123.89648 L 165.39258 122.90039 L 104.86328 91.320312 z M 16 133.66797 L 16 135.66797 C 16 153.80464 18.236328 171.91992 18.236328 171.91992 C 18.236328 171.91992 20.429836 187.35969 27.140625 194.1582 C 35.671661 203.08399 46.855719 202.79722 51.833984 203.74023 C 69.751352 205.45083 128 206 128 206 C 128 206 175.06295 205.93509 206.42383 203.6543 C 210.80996 203.12796 220.35027 203.08399 228.85938 194.1582 C 235.57016 187.35969 237.76367 171.91992 237.76367 171.91992 C 237.76367 171.91992 240 153.78271 240 135.66797 L 240 133.66797 C 240 151.78271 237.76367 169.91992 237.76367 169.91992 C 237.76367 169.91992 235.57016 185.35969 228.85938 192.1582 C 220.35027 201.08399 210.80996 201.12796 206.42383 201.6543 C 175.06295 203.93509 128 204 128 204 C 128 204 69.751352 203.45083 51.833984 201.74023 C 46.855719 200.79722 35.671661 201.08399 27.140625 192.1582 C 20.429836 185.35969 18.236328 169.91992 18.236328 169.91992 C 18.236328 169.91992 16 151.80464 16 133.66797 z "
   transform="matrix(4.5598215,0,0,4.5598215,-71.157145,-219.52323)"
   id="path858" /></g>
</g>
<g
   style="stroke-width:8.5116663"
   transform="matrix(0.21930683,0,0,0.21930683,15.605248,48.142944)"
   id="g839">
	<g
   style="stroke-width:8.5116663"
   id="g837">
		
			<linearGradient
   gradientTransform="matrix(1,0,0,-1,0,721)"
   y2="1.2"
   x2="512.5"
   y1="719.70001"
   x1="512.5"
   gradientUnits="userSpaceOnUse"
   id="linearGradient833">
			<stop
   id="stop829"
   style="stop-color:#E52D27"
   offset="0" />
			<stop
   id="stop831"
   style="stop-color:#BF171D"
   offset="1" />
		</linearGradient>
		<path
   style="fill:#fff8f8;stroke-width:1.86666656;fill-opacity:1;opacity:0.3"
   d="M 127.95703 48.427734 C 127.95703 48.427734 80.937049 48.42864 49.576172 50.6875 C 45.211966 51.213836 35.64973 51.257806 27.140625 60.183594 C 20.429836 66.982105 18.236328 82.419922 18.236328 82.419922 C 18.236328 82.419922 16 100.5352 16 118.67188 L 16 120.67188 C 16 102.5352 18.236328 84.419922 18.236328 84.419922 C 18.236328 84.419922 20.429836 68.982105 27.140625 62.183594 C 35.64973 53.257806 45.211966 53.213836 49.576172 52.6875 C 80.937049 50.42864 127.95703 50.427734 127.95703 50.427734 L 128.04297 50.427734 C 128.04297 50.427734 175.06295 50.42864 206.42383 52.6875 C 210.78803 53.213836 220.35027 53.257806 228.85938 62.183594 C 235.57016 68.982105 237.76367 84.419922 237.76367 84.419922 C 237.76367 84.419922 240 102.5352 240 120.67188 L 240 118.67188 C 240 100.5352 237.76367 82.419922 237.76367 82.419922 C 237.76367 82.419922 235.57016 66.982105 228.85938 60.183594 C 220.35027 51.257806 210.78803 51.213836 206.42383 50.6875 C 175.06295 48.42864 128.04297 48.427734 128.04297 48.427734 L 127.95703 48.427734 z M 163.46875 125.89648 L 104.86328 156.26172 L 104.86328 158.26172 L 165.39258 126.90039 L 163.46875 125.89648 z "
   transform="matrix(4.5598215,0,0,4.5598215,-71.157145,-219.52323)"
   id="path835" />
	</g>
</g><g
   id="g851"
   transform="matrix(0.21930683,0,0,0.21930683,15.605248,50.142944)"
   style="stroke-width:8.5116663">
	<g
   id="g849"
   style="stroke-width:8.5116663">
		
			<linearGradient
   id="linearGradient845"
   gradientUnits="userSpaceOnUse"
   x1="512.5"
   y1="719.70001"
   x2="512.5"
   y2="1.2"
   gradientTransform="matrix(1,0,0,-1,0,721)">
			<stop
   offset="0"
   style="stop-color:#E52D27"
   id="stop841" />
			<stop
   offset="1"
   style="stop-color:#BF171D"
   id="stop843" />
		</linearGradient>
		
	</g>
</g><g
   style="stroke-width:8.5116663;fill:#f22c42;fill-opacity:1"
   transform="matrix(0.21930683,0,0,0.21930683,15.605248,48.142944)"
   id="g930">
	<g
   style="stroke-width:8.5116663;fill:#f22c42;fill-opacity:1"
   id="g928">
		
			<linearGradient
   gradientTransform="matrix(1,0,0,-1,0,721)"
   y2="1.2"
   x2="512.5"
   y1="719.70001"
   x1="512.5"
   gradientUnits="userSpaceOnUse"
   id="linearGradient922">
			<stop
   id="stop918"
   style="stop-color:#E52D27"
   offset="0" />
			<stop
   id="stop920"
   style="stop-color:#BF171D"
   offset="1" />
		</linearGradient>
		<path
   style="fill:#f22c42;stroke-width:8.5116663;fill-opacity:1"
   inkscape:connector-curvature="0"
   id="path924"
   d="m 1013,156.3 c 0,0 -10,-70.4 -40.6,-101.4 C 933.6,14.2 890,14 870.1,11.6 727.1,1.3 512.7,1.3 512.7,1.3 h -0.4 c 0,0 -214.4,0 -357.4,10.3 C 135,14 91.4,14.2 52.6,54.9 22,85.9 12,156.3 12,156.3 c 0,0 -10.2,82.6 -10.2,165.3 v 77.5 c 0,82.7 10.2,165.3 10.2,165.3 0,0 10,70.4 40.6,101.4 38.9,40.7 89.9,39.4 112.6,43.7 81.7,7.8 347.3,10.3 347.3,10.3 0,0 214.6,-0.3 357.6,-10.7 20,-2.4 63.5,-2.6 102.3,-43.3 30.6,-31 40.6,-101.4 40.6,-101.4 0,0 10.2,-82.7 10.2,-165.3 v -77.5 c 0,-82.7 -10.2,-165.3 -10.2,-165.3 z M 407,493 V 206 l 276,144 z" />
	<path
   style="fill:#000000;stroke-width:1.86666656;fill-opacity:1;opacity:0.2"
   d="M 104.86328 91.320312 L 104.86328 93.320312 L 163.46875 123.89648 L 165.39258 122.90039 L 104.86328 91.320312 z M 16 133.66797 L 16 135.66797 C 16 153.80464 18.236328 171.91992 18.236328 171.91992 C 18.236328 171.91992 20.429836 187.35969 27.140625 194.1582 C 35.671661 203.08399 46.855719 202.79722 51.833984 203.74023 C 69.751352 205.45083 128 206 128 206 C 128 206 175.06295 205.93509 206.42383 203.6543 C 210.80996 203.12796 220.35027 203.08399 228.85938 194.1582 C 235.57015 187.35969 237.76367 171.91992 237.76367 171.91992 C 237.76367 171.91992 240 153.78271 240 135.66797 L 240 133.66797 C 240 135.93231 239.96545 138.1962 239.9043 140.42578 C 239.59852 151.57434 238.63759 161.84406 238.11328 166.80273 C 237.90363 168.78614 237.76367 169.91992 237.76367 169.91992 C 237.76367 169.91992 237.72934 170.16024 237.65625 170.5957 C 237.14473 173.64381 234.73132 186.20951 228.85938 192.1582 C 227.79574 193.27393 226.7166 194.25097 225.63281 195.10742 C 224.00714 196.39211 222.37258 197.40477 220.76953 198.20898 C 219.70084 198.74512 218.64562 199.18832 217.61719 199.55664 C 216.07453 200.10912 214.59115 200.49372 213.20703 200.77148 C 210.43888 201.32699 208.06863 201.45692 206.42383 201.6543 C 198.58361 202.22449 189.76173 202.6556 180.93945 202.98242 C 167.706 203.47278 154.47155 203.72753 144.54492 203.85938 C 134.61834 203.99106 128 204 128 204 C 128 204 105.2464 203.78532 83.806641 203.20703 C 83.672797 203.20342 83.549751 203.19895 83.416016 203.19531 C 70.697377 202.84927 58.482738 202.375 51.833984 201.74023 C 51.211701 201.62236 50.492287 201.52372 49.693359 201.42383 C 48.21597 201.23911 46.447997 201.03864 44.535156 200.7168 C 44.379183 200.69057 44.242067 200.6765 44.083984 200.64844 C 44.08337 200.64833 44.082645 200.64855 44.082031 200.64844 C 43.557854 200.55537 43.023059 200.45059 42.478516 200.33398 C 40.84483 199.98401 39.129745 199.51683 37.390625 198.86328 C 35.651557 198.20988 33.887871 197.37005 32.160156 196.27539 C 30.432408 195.18063 28.740194 193.83179 27.140625 192.1582 C 26.721542 191.73364 26.319959 191.27515 25.935547 190.78906 C 25.935224 190.78865 25.935869 190.78752 25.935547 190.78711 C 25.166483 189.81446 24.463249 188.73051 23.826172 187.58203 C 23.825893 187.58153 23.82645 187.58058 23.826172 187.58008 C 23.189159 186.43156 22.615665 185.21864 22.101562 183.98828 C 22.101328 183.98772 22.101797 183.98689 22.101562 183.98633 C 21.844658 183.37143 21.602905 182.7525 21.375 182.13477 C 21.374785 182.13418 21.375215 182.1334 21.375 182.13281 C 20.91905 180.89682 20.518534 179.66711 20.171875 178.49023 C 20.171685 178.48959 20.172065 178.48893 20.171875 178.48828 C 19.478554 176.13428 18.994062 173.99298 18.683594 172.43945 C 18.683435 172.43866 18.683753 172.4383 18.683594 172.4375 C 18.373138 170.88385 18.236328 169.91992 18.236328 169.91992 C 18.236328 169.91992 16 151.80464 16 133.66797 z "
   transform="matrix(4.5598215,0,0,4.5598215,-71.157145,-219.52323)"
   id="path926" /><circle
   r="64"
   cy="67.071999"
   cx="67.071999"
   id="circle1327"
   style="display:inline;opacity:0.2;fill:#000000;fill-opacity:1;stroke:none;stroke-width:1;stroke-linecap:round;stroke-linejoin:round;stroke-miterlimit:4;stroke-dasharray:none;stroke-dashoffset:1;stroke-opacity:0.4;filter:url(#filter1345-3);enable-background:new"
   transform="matrix(4.5598215,0,0,4.5598215,485.14108,336.1184)" /><circle
   style="display:inline;opacity:1;fill:#a347ba;fill-opacity:1;stroke:none;stroke-width:4.55982161;stroke-linecap:round;stroke-linejoin:round;stroke-miterlimit:4;stroke-dasharray:none;stroke-dashoffset:1;stroke-opacity:0.4;enable-background:new"
   id="path1173-9"
   cx="790.97742"
   cy="632.83508"
   r="291.82858" /><g
   style="font-weight:500;font-size:33.10900116px;font-family:Ubuntu;letter-spacing:0;word-spacing:0;text-anchor:middle;fill:#ffffff;enable-background:new"
   font-size="33.109"
   font-weight="500"
   letter-spacing="0"
   transform="matrix(23.711475,0,0,23.711475,613.12934,443.45456)"
   word-spacing="0"
   id="g68"><path
     inkscape:connector-curvature="0"
     style="fill:#ffffff"
     d="M 6.156,0.487 6.152,0.489 c -0.054,0 -0.125,0.005 -0.213,0.014 A 1.78,1.78 0 0 0 5.644,0.559 0.632,0.632 0 0 0 5.411,0.667 0.373,0.373 0 0 0 5.288,0.825 0.447,0.447 0 0 0 5.252,1.025 C 5.255,1.099 5.274,1.176 5.29,1.262 5.659,3.318 6,5.381 6.343,7.442 L 7.181,4.314 Z M 7.5,5.502 6.587,8.908 l 0.038,0.23 1.35,2.165 0.654,2.443 c 0.088,0.329 0.216,0.616 0.384,0.861 0.168,0.245 0.365,0.44 0.591,0.584 0.227,0.144 0.479,0.236 0.757,0.275 0.272,0.041 0.557,0.021 0.855,-0.058 0.297,-0.08 0.553,-0.206 0.769,-0.377 a 1.9,1.9 0 0 0 0.51,-0.615 c 0.123,-0.238 0.2,-0.505 0.228,-0.803 0.023,-0.296 -0.01,-0.609 -0.098,-0.938 a 2.712,2.712 0 0 0 -0.383,-0.853 2.164,2.164 0 0 0 -0.599,-0.582 1.888,1.888 0 0 0 -0.754,-0.267 1.945,1.945 0 0 0 -0.847,0.056 c -0.214,0.064 -0.42,0.163 -0.666,0.14 A 0.52,0.52 0 0 1 9.14,11.089 0.588,0.588 0 0 1 8.973,10.902 1.656,1.656 0 0 1 8.866,10.601 Z m 0,2.485 A 0.525,0.525 0 0 1 8.025,8.511 0.525,0.525 0 0 1 7.5,9.036 0.525,0.525 0 0 1 6.975,8.511 0.525,0.525 0 0 1 7.5,7.987 Z m 2.998,3.84 a 0.888,0.888 0 0 1 0.615,0.204 c 0.239,0.192 0.414,0.495 0.525,0.909 0.112,0.419 0.113,0.774 0.004,1.065 a 0.91,0.91 0 0 1 -0.65,0.567 c -0.319,0.085 -0.598,0.03 -0.839,-0.168 C 9.907,14.208 9.728,13.901 9.616,13.481 9.506,13.067 9.508,12.717 9.624,12.43 c 0.11,-0.291 0.324,-0.48 0.642,-0.565 0.08,-0.021 0.157,-0.034 0.232,-0.038 z"
     id="path64" /><path
     inkscape:connector-curvature="0"
     style="fill:#ffffff"
     d="M 8.844,0.487 V 0.489 H 8.843 L 8.52,1.688 H 8.521 L 6.134,10.6 A 1.66,1.66 0 0 1 6.027,10.901 0.588,0.588 0 0 1 5.86,11.088 0.514,0.514 0 0 1 5.624,11.168 C 5.379,11.191 5.172,11.091 4.957,11.028 a 1.945,1.945 0 0 0 -0.846,-0.056 1.887,1.887 0 0 0 -0.754,0.267 2.164,2.164 0 0 0 -0.6,0.582 c -0.166,0.24 -0.294,0.524 -0.382,0.853 a 2.784,2.784 0 0 0 -0.098,0.938 c 0.029,0.298 0.105,0.565 0.229,0.803 a 1.9,1.9 0 0 0 0.51,0.615 c 0.215,0.171 0.471,0.297 0.768,0.376 0.298,0.08 0.583,0.1 0.855,0.059 0.278,-0.04 0.53,-0.131 0.757,-0.276 0.226,-0.144 0.423,-0.338 0.59,-0.583 0.169,-0.245 0.297,-0.532 0.385,-0.861 L 7.026,11.302 8.375,9.136 C 8.854,6.518 9.2,3.874 9.705,1.261 9.721,1.176 9.739,1.098 9.742,1.024 A 0.515,0.515 0 0 0 9.707,0.824 0.375,0.375 0 0 0 9.584,0.666 0.63,0.63 0 0 0 9.35,0.56 1.802,1.802 0 0 0 9.054,0.504 2.842,2.842 0 0 0 8.85,0.489 Z M 7.5,7.987 A 0.525,0.525 0 0 1 8.025,8.511 0.525,0.525 0 0 1 7.5,9.036 0.525,0.525 0 0 1 6.975,8.511 0.525,0.525 0 0 1 7.5,7.987 Z m -2.998,3.84 c 0.075,0.004 0.152,0.017 0.232,0.038 0.318,0.085 0.532,0.274 0.642,0.565 0.116,0.287 0.119,0.637 0.008,1.051 -0.112,0.42 -0.291,0.727 -0.537,0.923 -0.24,0.197 -0.52,0.253 -0.839,0.168 A 0.91,0.91 0 0 1 3.358,14.005 C 3.248,13.715 3.25,13.359 3.362,12.94 3.473,12.526 3.648,12.223 3.887,12.03 a 0.888,0.888 0 0 1 0.615,-0.203 z"
     id="path66" /></g></g>
</g></svg>
